src/assets/img/unsorted/emotes/35.svg

<svg xmlns:xlink="http://www.w3.org/1999/xlink" height="100.8" width="132.65" xmlns="http://www.w3.org/2000/svg"><g transform="translate(77.75 73.55)"><use height="13.6" transform="translate(-7.2 -5.9)" width="14.1" xlink:href="#a"/><use height="30" transform="translate(6.45 -23.95)" width="10.05" xlink:href="#b"/></g><defs><use height="17.95" width="10.05" xlink:href="#c" id="b"/><use height="17.95" width="10.05" xlink:href="#d" id="c"/><g id="a" fill="none" stroke-linecap="round" stroke-linejoin="round"><path d="M-3.45 4.75.1 7.2l3.4-2.3" stroke="#333" transform="translate(7.2 5.9)"/><path d="m.9-.6.05-.7v-.1l.15-.9.25-.85.35-.8q.6-1.1 1.4-1.35l.55-.1q1.15 0 1.95 1.45.65 1.1.8 2.65v.8M-6.7-.65l.05-.65q.15-1.5.8-2.6.75-1.45 1.9-1.45l.65.15q.75.25 1.3 1.3.6 1.05.75 2.45v.15l.05.6" stroke="#666" transform="translate(7.2 5.9)"/></g><g id="d"><path d="m4.7.55-.05-.3.05.3.1 1.7L4.95 6l.1 3.9q0 1.95-.95 3.5-.5.8-1.45.75-1.9-.1-2.55-2.25H.05v-.15q.1-1.35.45-2.3Q.95 8 4.55.05l.1.15v.05l.1.25-.05.05M.1 11.9l-.05-.15.05.15" fill="#fff" fill-rule="evenodd" transform="translate(.5 .45)"/><path d="M4.7.55 4.75.5 8.6 9.45q.5 1.4.45 3.65-.05 2.2-1.2 3.05-1.15.85-3.3.85-2.2 0-3.35-.85T0 13.1l.05-1.2H.1q.65 2.15 2.55 2.25.95.05 1.45-.75.95-1.55.95-3.5L4.95 6 4.8 2.25 4.7.55" fill="#b8d2f1" fill-rule="evenodd" transform="translate(.5 .45)"/><path d="m4.65.2-.1-.15Q.95 8 .5 9.45q-.35.95-.45 2.3v.15L0 13.1q.05 2.2 1.2 3.05 1.15.85 3.35.85 2.15 0 3.3-.85t1.2-3.05q.05-2.25-.45-3.65L4.75.5" fill="none" stroke="#6f88b0" stroke-linecap="round" stroke-linejoin="round" transform="translate(.5 .45)"/><path d="m4.65.25.05.3M4.75.5l-.1-.25V.2M.05 11.75l.05.15" fill="none" stroke="#6f88b0" stroke-linecap="round" stroke-linejoin="round" transform="translate(.5 .45)"/></g></defs></svg>

<?xml version="1.0" encoding="UTF-8" standalone="no"?>
<svg xmlns:xlink="http://www.w3.org/1999/xlink" height="100.8px" width="132.65px" xmlns="http://www.w3.org/2000/svg">
  <g transform="matrix(1.0, 0.0, 0.0, 1.0, 77.75, 73.55)">
    <use height="13.6" transform="matrix(1.0, 0.0, 0.0, 1.0, -7.2, -5.9)" width="14.1" xlink:href="#shape0"/>
    <use height="30.0" transform="matrix(1.0, 0.0, 0.0, 1.0, 6.45, -23.95)" width="10.05" xlink:href="#sprite0"/>
  </g>
  <defs>
    <g id="shape0" transform="matrix(1.0, 0.0, 0.0, 1.0, 7.2, 5.9)">
      <path d="M-3.45 4.75 L0.1 7.2 3.5 4.9" fill="none" stroke="#333333" stroke-linecap="round" stroke-linejoin="round" stroke-width="1.0"/>
      <path d="M0.9 -0.6 L0.95 -1.3 0.95 -1.4 1.1 -2.3 1.35 -3.15 1.7 -3.95 Q2.3 -5.05 3.1 -5.3 L3.65 -5.4 Q4.8 -5.4 5.6 -3.95 6.25 -2.85 6.4 -1.3 L6.4 -0.5 M-6.7 -0.65 L-6.65 -1.3 Q-6.5 -2.8 -5.85 -3.9 -5.1 -5.35 -3.95 -5.35 L-3.3 -5.2 Q-2.55 -4.95 -2.0 -3.9 -1.4 -2.85 -1.25 -1.45 L-1.25 -1.3 -1.2 -0.7" fill="none" stroke="#666666" stroke-linecap="round" stroke-linejoin="round" stroke-width="1.0"/>
    </g>
    <g id="sprite0" transform="matrix(1.0, 0.0, 0.0, 1.0, 0.5, 12.5)">
      <use height="17.95" transform="matrix(1.0, 0.0, 0.0, 1.0, -0.5, -12.5)" width="10.05" xlink:href="#sprite1"/>
    </g>
    <g id="sprite1" transform="matrix(1.0, 0.0, 0.0, 1.0, 0.5, 0.45)">
      <use height="17.95" transform="matrix(1.0, 0.0, 0.0, 1.0, -0.5, -0.45)" width="10.05" xlink:href="#shape1"/>
    </g>
    <g id="shape1" transform="matrix(1.0, 0.0, 0.0, 1.0, 0.5, 0.45)">
      <path d="M4.7 0.55 L4.65 0.25 4.7 0.55 4.8 2.25 4.95 6.0 5.05 9.9 Q5.05 11.85 4.1 13.4 3.6 14.2 2.65 14.15 0.75 14.05 0.1 11.9 L0.05 11.9 0.05 11.75 Q0.15 10.4 0.5 9.45 0.95 8.0 4.55 0.05 L4.65 0.2 4.65 0.25 4.75 0.5 4.7 0.55 M0.1 11.9 L0.05 11.75 0.1 11.9" fill="#ffffff" fill-rule="evenodd" stroke="none"/>
      <path d="M4.7 0.55 L4.75 0.5 8.6 9.45 Q9.1 10.85 9.05 13.1 9.0 15.3 7.85 16.15 6.7 17.0 4.55 17.0 2.35 17.0 1.2 16.15 0.05 15.3 0.0 13.1 L0.05 11.9 0.1 11.9 Q0.75 14.05 2.65 14.15 3.6 14.2 4.1 13.4 5.05 11.85 5.05 9.9 L4.95 6.0 4.8 2.25 4.7 0.55" fill="#b8d2f1" fill-rule="evenodd" stroke="none"/>
      <path d="M4.65 0.2 L4.55 0.05 Q0.95 8.0 0.5 9.45 0.15 10.4 0.05 11.75 L0.05 11.9 0.0 13.1 Q0.05 15.3 1.2 16.15 2.35 17.0 4.55 17.0 6.7 17.0 7.85 16.15 9.0 15.3 9.05 13.1 9.1 10.85 8.6 9.45 L4.75 0.5" fill="none" stroke="#6f88b0" stroke-linecap="round" stroke-linejoin="round" stroke-width="1.0"/>
      <path d="M4.65 0.25 L4.7 0.55 M4.75 0.5 L4.65 0.25 4.65 0.2 M0.05 11.75 L0.1 11.9" fill="none" stroke="#6f88b0" stroke-linecap="round" stroke-linejoin="round" stroke-width="1.0"/>
    </g>
  </defs>
</svg>
